!!!COM:	Josquin des Prez
!!!CDT:	~1450-1521/08/27
!!!OTL@@LAT:	Ecce tu pulchra es
!!!AGN:	Motet
!!!SCT:	NJE 14.6
!!!SCA:	New Josquin Edition 14.6
!!!voices:	4
**kern	**kern	**kern	**kern
*staff4	*staff3	*staff2	*staff1
*Ivox	*Ivox	*Ivox	*Ivox
*I"Bassus	*I"Tenor	*I"Altus	*I"Superius
*I'B	*I'T	*I'A	*I'S
*clefF4	*clefGv2	*clefG2	*clefG2
*k[]	*k[]	*k[]	*k[]
*M2/1	*M2/1	*M2/1	*M2/1
*met(C|)	*met(C|)	*met(C|)	*met(C|)
=1-	=1-	=1-	=1-
1D	0r	0d	0r
2.D\	.	.	.
4E\	.	.	.
=2	=2	=2	=2
2F\	0r	1d	0r
2.G\	.	.	.
.	.	1B	.
4F\	.	.	.
4E\	.	.	.
4D\	.	.	.
=3	=3	=3	=3
2E\	0r	1c	0r
1F	.	.	.
.	.	1d	.
[2G\	.	.	.
=4	=4	=4	=4
2G\]	0r	2e/	0r
4F\	.	1f	.
4E\	.	.	.
2D\	.	.	.
[2A\	.	4e/	.
.	.	4d/	.
=5	=5	=5	=5
2A\]	0r	2c/	0r
4G\	.	1d	.
4F\	.	.	.
1E	.	.	.
.	.	2c#i/	.
=6	=6	=6	=6
1D	1r	1d	2r
.	.	.	1ff
2r	1a	1r	.
2A\	.	.	[2ff\
=7	=7	=7	=7
2B\	1g	0r	2ff\]
2c\	.	.	2ee\
2d\	1f	.	1dd
4c\	.	.	.
4B\	.	.	.
=8	=8	=8	=8
2A\	2.e\	0r	2.cc\
4G\	.	.	.
4F\	4f\	.	4dd\
2E\	2g\	.	2ee\
2D\	2a\	.	[2ff\
=9	=9	=9	=9
2d\	2f\	0r	4ff\]
.	.	.	4ee\
2G\	2g\	.	1dd
1A	1e	.	.
.	.	.	2cc#i\
=10	=10	=10	=10
1r	1d	1a	1dd
1d	1r	1a	1r
=11	=11	=11	=11
1d	0r	2b\	0r
.	.	2.dd\	.
1B	.	.	.
.	.	4cc\	.
.	.	4b\	.
.	.	4a/	.
=12	=12	=12	=12
1c	0r	2g/	0r
.	.	1a	.
1d	.	.	.
.	.	2b\	.
=13	=13	=13	=13
2e\	0r	2g/	0r
1f	.	1a	.
4e\	.	4g/	.
4d\	.	4f/	.
=14	=14	=14	=14
2c\	0r	2e/	0r
1d	.	2d/	.
.	.	1e	.
2c#i\	.	.	.
=15	=15	=15	=15
1d	1r	1d	2r
.	.	.	1ff
1r	1a	2r	.
.	.	[2f/	4ee\
.	.	.	4dd\
=16	=16	=16	=16
0r	1a	2f/]	2cc\
.	.	4e/	1ff
.	.	4d/	.
.	1g	2c/	.
.	.	2c/	2ee\
=17	=17	=17	=17
0r	1f	1d	1dd
.	2.e\	1A	2.cc\
.	4f\	.	4dd\
=18	=18	=18	=18
0r	2g\	0r	2ee\
.	2a\	.	2.ff\
.	2f\	.	.
.	.	.	4ee\
.	2g\	.	[2dd\
=19	=19	=19	=19
0r	1e	1r	2dd\]
.	.	.	2cc#i\
.	1d	[1a	1dd
=20	=20	=20	=20
1d	1r	1a]	0dd
1d	1f	1a	.
=21	=21	=21	=21
1G	1g	1b-i	1dd
[1d	1a	2a/	1dd
.	.	2f/	.
=22	=22	=22	=22
1d]	1f	1a	1ff
1d	1f	1b	1ff
=23	=23	=23	=23
0c	0g	0cc	0ee
=24	=24	=24	=24
1c	1g	1cc	1ee
1G	1g	1b	1dd
=25	=25	=25	=25
1A	1e	1a	1cc
1E	2.e\	1g	1b
.	4d\	.	.
=26	=26	=26	=26
2F\	2c\	2f/	2a/
2G\	2B\	2d/	2dd\
2A\	2A/	2r	2cc\
[2G\	[2d\	[2g/	[2b\
=27	=27	=27	=27
2G\]	2d\]	2g/]	2b\]
2A\	2c\	2f/	1a
1E	1B	2.e/	.
.	.	.	2g#i/
.	.	4c/	.
=28	=28	=28	=28
1F	0A	2.c/	[0a
.	.	4d/	.
2r	.	2e/	.
[2D\	.	[2f/	.
=29	=29	=29	=29
2D\]	1r	2f/]	0a]
2E\	.	4e/	.
.	.	4d/	.
2F\	1A	1c	.
2F\	.	.	.
=30	=30	=30	=30
1G	2B\	1r	0r
.	2B\	.	.
2E\	1c	1e	.
2E\	.	.	.
=31	=31	=31	=31
1D	1d	2f/	1a
.	.	2f/	.
1r	2B\	1g	2b\
.	2B\	.	2b\
=32	=32	=32	=32
0r	1A	1a	1cc
.	1r	1f	1dd
=33	=33	=33	=33
0r	0r	1g	2b\
.	.	.	2b\
.	.	1a	1a
=34	=34	=34	=34
1A	1r	0r	0r
2A\	1e	.	.
2A\	.	.	.
=35	=35	=35	=35
1c	2e\	0r	0r
.	2e\	.	.
1B-i	1g	.	.
=36	=36	=36	=36
1A	1f	0r	0r
1G	1e	.	.
=37	=37	=37	=37
2G\	2.d\	0r	0r
1B-i	.	.	.
.	4e\	.	.
.	2f\	.	.
4A\	[2g\	.	.
4G\	.	.	.
=38	=38	=38	=38
2B-i\	2g\]	0r	0r
2A\	1f	.	.
1G	.	.	.
.	2e\	.	.
=39	=39	=39	=39
1F	1f	1r	1r
2r	1r	1a	1cc
[2F\	.	.	.
=40	=40	=40	=40
2F\]	0r	1a	1cc
2A\	.	.	.
2G\	.	2b-i\	2dd\
2G\	.	2b-i\	2dd\
=41	=41	=41	=41
2A\	0r	1a	2cc\
2F\	.	.	1ff
1c	.	1g	.
.	.	.	2ee\
=42	=42	=42	=42
0r	2r	1f	2dd\
.	1d	.	1ff
.	.	1a	.
.	2A/	.	[2ee\
=43	=43	=43	=43
0r	2c\	2g/	2ee\]
.	2d\	2f/	1dd
.	1A	1e	.
.	.	.	2cc#i\
=44	=44	=44	=44
1r	1a	4d/	1dd
.	.	4e/	.
.	.	4f/	.
.	.	4g/	.
2d\	1r	2a/	1r
2d\	.	2b\	.
=45	=45	=45	=45
1f	0r	2a/	0r
.	.	1dd	.
1e	.	.	.
.	.	2cc#i\	.
=46	=46	=46	=46
2d\	2d\	1dd	0r
1f	2d\	.	.
.	1f	1r	.
4e\	.	.	.
4d\	.	.	.
=47	=47	=47	=47
2c\	1e	0r	1r
4d\	.	.	.
4c\	.	.	.
2d\	2d\	.	2dd\
[2D\	[2f\	.	2dd\
=48	=48	=48	=48
4D\]	2f\]	0r	1ff
4E\	.	.	.
4F\	4e\	.	.
4G\	4d\	.	.
2A\	1c#i	.	1ee
2E\	.	.	.
=49	=49	=49	=49
2F\	1d	2d/	2dd\
2.D\	.	2d/	1ff
.	1r	1f	.
4E\	.	.	.
4F\	.	.	4ee\
4G\	.	.	4dd\
=50	=50	=50	=50
1A	0r	1e	2cc\
.	.	.	4dd\
.	.	.	4cc\
1r	.	2d/	2dd\
.	.	[2f/	[2a/
=51	=51	=51	=51
1r	0r	2f/]	2a/]
.	.	4e/	4g/
.	.	4d/	4f/
1A	.	2c/	1e
.	.	4d/	.
.	.	4c/	.
=52	=52	=52	=52
2F\	1r	1d	1d
2G\	.	.	.
2D\	1a	1r	1r
2F\	.	.	.
=53	=53	=53	=53
2E\	2g\	0r	1r
2E\	2g\	.	.
1D	2f\	.	1a
.	2f\	.	.
=54	=54	=54	=54
1r	2e\	0r	2g/
.	2e\	.	2g/
2r	1d	.	2f/
[2d\	.	.	2f/
=55	=55	=55	=55
2d\]	1A	1r	2e/
2c\	.	.	2e/
2d\	1r	1a	2d/
2A\	.	.	[2ff\
=56	=56	=56	=56
1c	0r	2g/	2ff\]
.	.	2g/	1ee
1d	.	2f/	.
.	.	2f/	[2dd\
=57	=57	=57	=57
1A	0a	2e/	2dd\]
.	.	2e/	2cc#i\
1D	.	1d	1dd
=58	=58	=58	=58
1r	1a	2r	0r
.	.	2f/	.
1D	[1a	2f/	.
.	.	4e/	.
.	.	4d/	.
=59	=59	=59	=59
1F	1a]	2c/	0r
.	.	1d	.
2E\	1g	.	.
2E\	.	2c#i/	.
=60	=60	=60	=60
1D	0f	1d	1a
1r	.	1r	1cc
=61	=61	=61	=61
1r	1d	2dd\	1b
.	.	2dd\	.
1A	1f	2cc\	1a
.	.	4b\	.
.	.	4a/	.
=62	=62	=62	=62
1c	1e	2g/	1r
.	.	1a	.
1B	1d	.	2dd\
.	.	2g#i/	2dd\
=63	=63	=63	=63
2A\	0r	1a	2cc\
1c	.	.	4b\
.	.	.	4a/
.	.	1e	2g/
4B\	.	.	[2a/
4A\	.	.	.
=64	=64	=64	=64
1B	1d	0r	2a/]
.	.	.	2g#i/
1A	2e\	.	2a/
.	[2f\	.	2cc\
=65	=65	=65	=65
1r	2f\]	0r	2dd\
.	2g\	.	1ee
1A	[1a	.	.
.	.	.	[2ff\
=66	=66	=66	=66
0B-i	2a\]	0r	2ff\]
.	4g\	.	4ee\
.	4f\	.	4dd\
.	1g	.	1dd
=67	=67	=67	=67
1A	0a	1c	1cc
1F	.	2d/	1r
.	.	[2f/	.
=68	=68	=68	=68
1G	0b-i	2f/]	0r
.	.	4e/	.
.	.	4d/	.
1G	.	1e	.
=69	=69	=69	=69
1F	1a	0f	1cc
1F	1f	.	2dd\
.	.	.	[2ff\
=70	=70	=70	=70
1c	1g	0r	2ff\]
.	.	.	4ee\
.	.	.	4dd\
1c	1g	.	1ee
=71	=71	=71	=71
0F	1f	1cc	0ff
.	1r	1cc	.
=72	=72	=72	=72
0r	1f	1a	0r
.	1f	1cc	.
=73	=73	=73	=73
0r	1d	2.b\	0r
.	.	4g/	.
.	1f	2a/	.
.	.	[2dd\	.
=74	=74	=74	=74
0r	2e\	2dd\]	0r
.	2c\	1cc	.
.	1d	.	.
.	.	2b\	.
=75	=75	=75	=75
2r	1c	0cc	0r
1F	.	.	.
.	1c	.	.
[2A\	.	.	.
=76	=76	=76	=76
2A\]	1e	0r	0r
2c\	.	.	.
2B\	2g\	.	.
[2c\	2g\	.	.
=77	=77	=77	=77
2c\]	2e\	0r	0r
4B\	1g	.	.
4A\	.	.	.
2G\	.	.	.
[2c\	4f\	.	.
.	4e\	.	.
=78	=78	=78	=78
2c\]	1d	1r	0r
2B\	.	.	.
1c	1c	1g	.
=79	=79	=79	=79
0r	0r	1g	1ee
.	.	1a	1ee
=80	=80	=80	=80
0r	0r	1a	1ff
.	.	1b	1dd
=81	=81	=81	=81
0r	0r	2g/	1ee
.	.	2.a/	.
.	.	.	1cc
.	.	4g/	.
.	.	4f/	.
.	.	4e/	.
=82	=82	=82	=82
0r	0r	2d/	1dd
.	.	2f/	.
.	.	2e/	2cc\
.	.	[2a/	2a/
=83	=83	=83	=83
0r	0r	2a/]	1b
.	.	2g#i/	.
.	.	1a	1a
=84	=84	=84	=84
2r	2f\	0r	0r
1d	2f\	.	.
.	1e	.	.
2c\	.	.	.
=85	=85	=85	=85
2d\	1d	0r	0r
1B-	.	.	.
.	2d\	.	.
4A\	[2f\	.	.
4G\	.	.	.
=86	=86	=86	=86
1B-i	2f\]	0r	0r
.	4e\	.	.
.	4d\	.	.
2F\	2f\	.	.
[2A\	[2e\	.	.
=87	=87	=87	=87
2A\]	2e\]	0r	0r
4G\	1d	.	.
4F\	.	.	.
1E	.	.	.
.	2c#i\	.	.
=88	=88	=88	=88
1D	1d	1.a	1.ff
2d\	1r	.	.
2d\	.	2a/	2ff\
=89	=89	=89	=89
2c\	0r	1cc	1ee
2A\	.	.	.
2B\	.	2b\	2dd\
2A\	.	[2cc\	[2ee\
=90	=90	=90	=90
2r	1e	2cc\]	2ee\]
2A\	.	4b\	4dd\
.	.	4a/	4cc\
1E	1e	1g	1b
=91	=91	=91	=91
1F	2c\	1a	1a
.	1f	.	.
1D	.	1r	1dd
.	4e\	.	.
.	4d\	.	.
=92	=92	=92	=92
1A	1e	1a	1cc
[1D	2d\	[1a	1dd
.	[2f\	.	.
=93	=93	=93	=93
2D\]	2f\]	2a/]	0ff
2E\	2e\	2g/	.
2F\	1d	2a/	.
2G\	.	2b\	.
=94	=94	=94	=94
1A	1c	2cc\	1ee
.	.	1a	.
1B-i	1d	.	1dd
.	.	2g/	.
=95	=95	=95	=95
[0A;	[0e;	[0a;	[0cc#i;
=96	=96	=96	=96
0A]	0e]	0a]	0cc#]
=97	=97	=97	=97
0Dl	0dl	0al	0ddl
==	==	==	==
*-	*-	*-	*-
!!!RDF**kern: l=long note in original notation
!!!RDF**kern: i=editorial accidental
!!!ENC:	Jesse Rodin; Victoria Chang 2011/05/17
!!!END:	2011/05/17/
!!!EED:	Jesse Rodin
!!!EEV:	2011/08/18/
!!attribution-level@Jos: 1 (secure)
!!!ONB:	Translated from MusicXML and edited on 2011/08/18/ by Craig Sapp
!!muse2ps: C^@{COM}\n@{SCT}^I150v90,90,90,150Q16
